!!!COM: Bozi, Paolo
!!!CDT:
!!!PTL: Canzonette a tre voci
!!!PPP: Venice
!!!PPR: Amadino
!!!PDT: 1591
!!!PUB-format:
!!!RISM: B 4203
!!!rime: 443
!!!OTL: Questa vita è la selva, il verde e l'ombra
!!!AGN: Madrigal
!!!SCT: Trm0443c
!!!SCA: Trm0443c
!!!original-voices: 3
!!!extant-voices: 3
!!!complete: Y
!!!final: A
**kern	**text	**kern	**text	**kern	**text
*part3	*part3	*part2	*part2	*part1	*part1
*staff3	*staff3	*staff2	*staff2	*staff1	*staff1
*I"Basso	*	*I"Tenore	*	*I"Canto	*
*I'B	*	*I'T	*	*I'C	*
*oclefC3	*	*oclefG2	*	*oclefG2	*
*clefGv2	*	*clefG2	*	*clefG2	*
*k[]	*	*k[]	*	*k[]	*
*C:	*	*C:	*	*C:	*
*omet(C)	*	*omet(C)	*	*omet(C)	*
*M2/2	*	*M2/2	*	*M2/2	*
=1	=1	=1	=1	=1	=1
2r	.	1r	.	2.a	Que-
[2A	Que-	.	.	.	.
.	.	.	.	4b	-sta
=2	=2	=2	=2	=2	=2
4A]	.	1r	.	2cc	vi-
4B	-sta	.	.	.	.
2c	vi-	.	.	4cc	-ta_è
.	.	.	.	4dd	la
=3	=3	=3	=3	=3	=3
4c	-ta_è	4r	.	4ee	sel-
4d	la	4a	il	2dd	.
2e	sel-	4.g	ver-	.	.
.	.	.	.	4cc	.
.	.	8a	.	.	.
=4	=4	=4	=4	=4	=4
2d	-va,	4b	.	2dd	-va,
.	.	4a	-d’e	.	.
4r	.	4cc	l’om-	4r	.
4A	il	8bL	.	4cc	il
.	.	8aJ	.	.	.
=5	=5	=5	=5	=5	=5
4e	ver-	4b	.	4g	ver-
4f	-d’e	2a	.	4a	-d’e
2e	l’om-	.	.	2b	l’om-
.	.	4g	.	.	.
=6	=6	=6	=6	=6	=6
2A	-bra,	4a	-bra,	4cc	-bra,
.	.	4cc	il	4a	il
4r	.	8bL	ver-	4.g	ver-
.	.	8a	.	.	.
4e	il	8b	.	.	.
.	.	8ccJ	.	8a	.
=7	=7	=7	=7	=7	=7
4d	ver-	4dd	.	4b	.
4f	-d’e	4cc	-d’e	4a	-d’e
4c	l’om-	[2ee	l’om-	4cc	l’om-
4A	.	.	.	8bL	.
.	.	.	.	8aJ	.
=8	=8	=8	=8	=8	=8
1e	.	4ee]	.	4b	.
.	.	8ddL	.	2a	.
.	.	8ccJ	.	.	.
.	.	2b	.	.	.
.	.	.	.	4g#X	.
=9	=9	=9	=9	=9	=9
2A	-bra	2cc	-bra	2a	-bra
[2e	Son	[2b	Son	[2g	Son
=10	=10	=10	=10	=10	=10
4e]	.	4b]	.	4g]	.
4e	fal-	4b	fal-	4g	fal-
4e	-la-	4b	-la-	4g	-la-
8e	-ci	8b	-ci	8g	-ci
8A	spe-	8cc	spe-	8a	spe-
=11	=11	=11	=11	=11	=11
2.e	-ran-	2.b	-ran-	2.g	-ran-
4a	-ze,_e	4cc	-ze,_e	4a	-ze,_e
=12	=12	=12	=12	=12	=12
4g#X	son	4b	son	4b	son
4a	le	4a	le	4cc	le
2e	re-	[2g	re-	2b	re-
=13	=13	=13	=13	=13	=13
4e	-ti	4g]	.	4b	-ti
4c	Pia-	2cc	-ti	4ee	Pia-
[2d	-cer	.	.	4.ff	-cer
.	.	4b	Pia-	.	.
.	.	.	.	8ee	.
=14	=14	=14	=14	=14	=14
2d]	.	2a	-cer	2dd	.
2A	dol-	2ee	dol-	4.cc	dol-
.	.	.	.	16bL	.
.	.	.	.	16aJ	.
=15	=15	=15	=15	=15	=15
2c	-ci_e	4ee	-ci_e	4g	.
.	.	4ee	se-	2a	-ci_e
2d	se-	[2dd	-cre-	.	.
.	.	.	.	[4b	se-
=16	=16	=16	=16	=16	=16
1e	-cre-	4dd]	.	4b]	.
.	.	4cc	.	2a	-cre-
.	.	2b	.	.	.
.	.	.	.	4g#X	.
=17	=17	=17	=17	=17	=17
1A	-ti,	1cc#X	-ti,	1a	-ti,
=18	=18	=18	=18	=18	=18
2r	.	2.a	Que-	1r	.
[2A	Que-	.	.	.	.
.	.	4b	-sta	.	.
=19	=19	=19	=19	=19	=19
4A]	.	2cc	vi-	1r	.
4B	-sta	.	.	.	.
2c	vi-	4cc	-ta_è	.	.
.	.	4dd	la	.	.
=20	=20	=20	=20	=20	=20
4c	-ta_è	4ee	sel-	4r	.
4d	la	2dd	.	4a	il
2e	sel-	.	.	4.g	ver-
.	.	4cc	.	.	.
.	.	.	.	8a	.
=21	=21	=21	=21	=21	=21
2d	-va,	2dd	-va,	4b	.
.	.	.	.	4a	-d’e
4r	.	4r	.	4cc	l’om-
4A	il	4cc	il	8bL	.
.	.	.	.	8aJ	.
=22	=22	=22	=22	=22	=22
4e	ver-	4g	ver-	4b	.
4f	-d’e	4a	-d’e	2a	.
2e	l’om-	2b	l’om-	.	.
.	.	.	.	4g#X	.
=23	=23	=23	=23	=23	=23
2A	-bra,	4cc	-bra,	4a	-bra,
.	.	4a	il	4cc	<il
4r	.	4.g	ver-	8bL	ver-
.	.	.	.	8a	.
4e	il	.	.	8b	.
.	.	8a	.	8ccJ	.
=24	=24	=24	=24	=24	=24
4d	ver—d’e	4b	.	4dd	.
4f	l’om-	4a	-d’e	4cc	-d’e
4c	.	4cc	l’om-	[2ee	l’om-
4A	.	8bL	.	.	.
.	.	8aJ	.	.	.
=25	=25	=25	=25	=25	=25
1e	.	4b	.	4ee]	.
.	.	2a	.	8ddL	.
.	.	.	.	8ccJ	.
.	.	.	.	2b	.
.	.	4g#X	.	.	.
=26	=26	=26	=26	=26	=26
2A	-bra	2a	-bra	2cc#X	-bra>
[2e	Son	[2g	Son	[2b	Son
=27	=27	=27	=27	=27	=27
4e]	.	4g]	.	4b]	.
4e	fal-	4g	fal-	4b	fal-
4e	-la-	4g	-la-	4b	-la-
8e	-ci	8g	-ci	8b	-ci
8A	spe-	8a	spe-	8cc	spe-
=28	=28	=28	=28	=28	=28
2.e	-ran-	2.g	-ran-	2.b	-ran-
4a	-ze,_e	4a	-ze,_e	4cc	-ze,_e
=29	=29	=29	=29	=29	=29
4g#X	son	4b	son	4b	son
4a	le	4cc	le	4a	le
2e	re-	2b	re-	[2g	re-
=30	=30	=30	=30	=30	=30
4e	-ti	4b	-ti	4g]	.
4c	Pia-	4ee	Pia-	2cc	-ti
[2d	-cer	4.ff	-cer	.	.
.	.	.	.	4b	Pia-
.	.	8ee	.	.	.
=31	=31	=31	=31	=31	=31
2d]	.	2dd	.	2a	-cer
2A	dol-	4.cc	dol-	2ee	dol-
.	.	16bL	.	.	.
.	.	16aJ	.	.	.
=32	=32	=32	=32	=32	=32
2c	-ci	4g	.	4ee	-ci_e
.	.	2a	.	4ee	se-
2d	se-	.	.	[2dd	-cre-
.	.	[4b	-ci_e	.	.
=33	=33	=33	=33	=33	=33
1e	-cre-	4b]	.	4dd]	.
.	.	2a	se-	4cc	.
.	.	.	.	2b	.
.	.	4g#X	-cre-	.	.
=34	=34	=34	=34	=34	=34
1A	-ti,	1a	-ti,	1cc#X	-ti,
=35	=35	=35	=35	=35	=35
*col	*	*col	*	*col	*
3%2a	E	3%2cc	E	3%2ee	E
3g	son	3b	son	3ee	son
=36	=36	=36	=36	=36	=36
3.f	i-	3.a	i-	3.dd	i-
6f	-spi-	6a	-spi-	6dd	-spi-
3e	-di	3g	-di	3cc	-di
*Xcol	*	*Xcol	*	*Xcol	*
=37	=37	=37	=37	=37	=37
1d	du-	2a	du-	1ff	du-
.	.	2b	.	.	.
=38	=38	=38	=38	=38	=38
[1c	-mi	2cc	-mi	2ee	-mi
.	.	[2a	Cru-	[2ff	Cru-
=39	=39	=39	=39	=39	=39
1c]	.	2a]	.	2ff]	.
.	.	2g	-de	[2ee	-de
=40	=40	=40	=40	=40	=40
[1f	Cru-	[1a	vo-	2ee]	.
.	.	.	.	[2dd	vo-
=41	=41	=41	=41	=41	=41
2f]	.	2a]	.	2dd]	.
2e	-de	2g	.	2cc	.
=42	=42	=42	=42	=42	=42
1d	vo-	1f	.	2dd	-glie,
.	.	.	.	2a	su-
=43	=43	=43	=43	=43	=43
2.c	-glie,	2.g	-glie,	2.ee	-per-
4A	su-	[4a	su-	[4cc	-bi_al-
=44	=44	=44	=44	=44	=44
2.a	-per-	4a]	.	4cc]	.
.	.	2ee	-per-	2cc	-ti
4e	-bi_al-	[4gg	-bi_al-	[4b	co-
=45	=45	=45	=45	=45	=45
2.g	-ti	4gg]	.	4b]	.
.	.	2gg	-ti	2dd	-stu-
4d	co-	4ff	co-	4dd	-mi_al-
=46	=46	=46	=46	=46	=46
1e	-stu-	4ee	-stu-	4b	-ti
.	.	8ddL	.	2a	co-
.	.	8ccJ	.	.	.
.	.	2b	.	.	.
.	.	.	.	4g#X	-stu-
=47	=47	=47	=47	=47	=47
1A	-mi;	1cc#X	-mi;	1a	-mi;
=48	=48	=48	=48	=48	=48
*col	*	*col	*	*col	*
3%2a	E	3%2ee	E	3%2cc	E
3g	son	3ee	son	3cc	son
=49	=49	=49	=49	=49	=49
3.f	i-	3.dd	i-	3.a	i-
6f	-spi-	6dd	-spi-	6a	-spi-
3e	-di	3cc	-di	3g	-di
*Xcol	*	*Xcol	*	*Xcol	*
=50	=50	=50	=50	=50	=50
1d	du-	1ff	du-	2a	du-
.	.	.	.	2b	.
=51	=51	=51	=51	=51	=51
[1c	-mi	2ee	-mi	2cc	-mi
.	.	[2ff	Cru-	[2a	Cru-
=52	=52	=52	=52	=52	=52
1c]	.	2ff]	.	2a]	.
.	.	[2ee	-de	2g	-de
=53	=53	=53	=53	=53	=53
[1f	Cru-	2ee]	.	[1a	vo-
.	.	[2dd	vo-	.	.
=54	=54	=54	=54	=54	=54
2f]	.	2dd]	.	2a]	.
2e	-de	2cc	.	2g	.
=55	=55	=55	=55	=55	=55
1d	vo-	2dd	-glie,	1f	.
.	.	2a	su-	.	.
=56	=56	=56	=56	=56	=56
2.c	-glie,	2.ee	-per-	2.g	-glie,
4A	su-	[4cc	-bi_al-	[4a	su-
=57	=57	=57	=57	=57	=57
2.a	-per-	4cc]	.	4a]	.
.	.	2cc	-ti	2ee	-per-
4e	-bi_al-	[4b	co-	[4gg	-bi_al-
=58	=58	=58	=58	=58	=58
2.g	-ti	4b]	.	4gg]	.
.	.	2dd	-stu-	2gg	-ti
4d	co-	4dd	-mi,_al-	4ff	co-
=59	=59	=59	=59	=59	=59
1e	-stu-	4b	-ti	4ee	-stu-
.	.	2a	co-	8ddL	.
.	.	.	.	8ccJ	.
.	.	.	.	2b	.
.	.	4g#X	-stu-	.	.
=60	=60	=60	=60	=60	=60
1Al	-mi.	1al	-mi.	1cc#Xl	-mi.
==	==	==	==	==	==
*-	*-	*-	*-	*-	*-
!!!system-decoration: [*]
!!!RDF**kern: i = editorial accidental
!!!RDF**kern: l = terminal long
!!!ENC: Emiliano Ricciardi
!!!END: 2019/01/30
!!!EED: Schleuse, Paul
!!!EEV: 2019/01/30
!!!YEC: Copyright 2018 Emiliano Ricciardi, All Rights Reserved
!!!ONB: Translated from MusicXML on 2019/01/30 and edited by Craig Stuart Sapp
!!@@BEGIN:	VERSEDATA
!!@SOLERTI:	443
!!@CATALOGNUM:	Trm0443
!!@LAST_MODIFIED: 2020/07/12
!!@TITLE:		Questa vita è la selva, il verde e l'ombra
!!@GENRE:		madrigale
!!@MANUSRC:	E<sub>2</sub>, M<sub>7</sub>, N<sub>3</sub>
!!@PRINTSRC:	28, 50, 78, 141, 164, 166, 169
!!@@BEGIN:	VERSES
!!@ABOUTIT:	[Ad istanza del signor Curzio Ardizio]
!!@ABOUTEN:	[On behald of sir Curzio Ardizio]
!!@EDITOR:	Solerti, Angelo
!!@EDITION_TITLE: Le Rime di Torquato Tasso
!!@EDITION_LOC:	Bologna
!!@EDITION_PUB:	Romagnoli-Dall’Acqua
!!@EDITION_DATE:  1898-1902
!!@EDITION_VOL:	2
!!@EDITION_PAGE:  474
!!@TRANSLATOR:	Maria Pastore Passaro; adapted by Emiliano Ricciardi and Amyrose McCue Gill
!!@VERSE:
!!	Questa vita è la selva, il verde e l'ombra
!!	Son fallaci speranze, e son le reti
!!	Piacer dolci e secreti,
!!	E sono ispidi dumi
!!	Crude voglie e costumi;
!!	La fera è la mia donna, Amor l'arciero,
!!	Il veltro il mio pensiero.
!!	Ella ratta se 'n va senza ritegno,
!!	Né fugge per timor ma per disdegno,
!!	Non servitù ma pace;
!!	E quanto è più superba è più fugace.
!!@TVERSE:
!!	This life is the forest, the green and the shade
!!	Are flawed hopes, and the nets are
!!	Pleasures sweet and secret,
!!	And the prickly thorns are
!!	Pitiless desires and habits:
!!	The wild beast is my lady, Love the archer,
!!	The greyhound my thought.
!!	She rushes off, without restraint,
!!	Nor flies for fear, but for disdain,
!!	Not servitude but peace;
!!	And the more proud she is, the more quick to flee.
!!@@END:		VERSES
!!@OTHER_CRIT_ED:   None
!!@ATTRIBUTION_ABOUT:	Secure
!!		<br>
!!		Among other sources, this poem appears in the authoritative manuscript It. 379a, Biblioteca Estense Universitaria, Modena, Italy (see Literary Sources).
!!@DATING:	Mid-1580s?
!!@DEDICATEE:	Ardizio, Curzio
!!@DEDICATEE_INFO:	Ardizio, Curzio (on behalf of)
!!@COMMENTARY:
!!@@END:		VERSEDATA
!!@@BEGIN:	SETTING
!!@CATALOGNUM:	Trm0443c
!!@RIMETITLE:	Questa vita è la selva, il verde e l'ombra
!!@SOLERTI:	443
!!@COMPOSER:	Bozi, Paolo
!!@PRINCEPSTITLE:	Canzonette a tre voci
!!@PRINCEPSLOC:	Venetia
!!@NORMLOC:	Venice
!!@NORMPUB:	Amadino
!!@NORMPUBSHORT:	Amadino
!!@PRINCEPSPUB:	Amadino
!!@PRINCEPSYEAR:	1591
!!@PRINCEPSRISM:	B 4203
!!@REPRINTS:	
!!@OVOICES:	3
!!@EXTANTVOICES:	3
!!@PARTBOOKS:	
!!@EXTPARTBOOKS:	
!!@OCLEFS:	G2,G2,C3
!!@OMENSURATION:	C
!!@OKEYSIG:	-
!!@FINAL:	A
!!@TIMPEDITOR:	Schleuse, Paul
!!@NOTE:		
!!@@END:		SETTING
